X: 193
T: Mollie Mac Alpin
N:"Moderate"
B:O'Neill's 193
Z:Transcribed by henrik.norbeck@mailbox.swipnet.se
M:C
L:1/8
K:Am
B2|c2 A>A A2 G>A|c2 A>G G2 c>d|e2 d>e (dc)A>A|A4 z2 e2|
f2 (g>f) e2 f>e|(dc)de g2 (a>g)|(g>e)d>e dcA>A|A4 z2||
(e>f)|(ge)(g>a) g2 (fe)|(ge)(de) g3 e|(a^g)(ab) a=geg|a4 z2 ag|
f2 (gf) e2 (fe)|d2 (d/e/g) Ha3 a|(ge)(d>e) c2 A>A|A4 z2||


